src/basic/400/u1F5D9-close.svg

<svg width="24" height="32" viewBox="0 0 24 32" fill="none" xmlns="http://www.w3.org/2000/svg">
<path fill-rule="evenodd" clip-rule="evenodd" d="M12 16.7071L0.853551 27.8535L0.146443 27.1464L11.2929 16L0.146428 4.85354L0.853534 4.14644L12 15.2929L23.1465 4.14643L23.8536 4.85354L12.7071 16L23.8536 27.1464L23.1464 27.8535L12 16.7071Z" fill="black"/>
</svg>

<svg width="24" height="32" viewBox="0 0 24 32" fill="none" xmlns="http://www.w3.org/2000/svg">
<path fill-rule="evenodd" clip-rule="evenodd" d="M12,16.7071l-11.14645,11.1464l-0.70711,-0.7071l11.14646,-11.1464l-11.14647,-11.14646l0.70711,-0.7071l11.14647,11.14646l11.1465,-11.14647l0.7071,0.70711l-11.1465,11.14646l11.1465,11.1464l-0.7072,0.7071z" fill="black"/>
</svg>
